X:1
T:Title
%%score { ( 1 4 5 ) | ( 2 3 6 ) }
L:1/8
M:4/4
K:F
V:1 treble nm="Grand Piano"
V:4 treble 
V:5 treble 
V:2 bass 
V:3 bass 
V:6 bass 
V:1
 z4 z2[Q:1/4=104] [FAc]2 | [FAc]3 [CGB] [CFA]>[CGB] [FAc]>[FBd] | [FAc]4 [FA]2 [A,F]2 | %3
 [EG]2 [GB]2 [FA]2 [EG]2 | [FA]6 [Ac]2 | [Ac]3 [GB] [FA]>[GB] [Ac]>[Bd] | [Ac]4 A2 F2 | %7
 G2 B2 A2 [EG]2 |[M:3/4] F6 |[M:1/4] A>B |[M:4/4] c6 z z/ B/ | c6 f2 | f6 z2 | c4 z4 | %14
 G->[EG-] [EG-]>[EG-] G>G (3GAB | A4 z4 | c2 A2 z2 G2 |[M:7/8] F-F-F- F- F3 |] %18
V:2
 z4 z2 F,2 | F,3 F, F,>F, F,>F, | z4 C2 F,2 | [C,C]2 [C,C]2 [C,C]2 [C,C]2 | [F,C]6 [F,F]2 | %5
 [F,F]3 [F,C] [F,C]>[F,C][K:treble] [F,F]>[F,F] | F4 [CF]2 [A,C]2 | %7
 [B,DF]2 [G,DG]2 [CF]2[K:bass] [C,B,]2 |[M:3/4] [F,A,]6 |[M:1/4] z2 | %10
[M:4/4] [F,F]>[F,F] [F,F]>[F,F] [F,F]2 [F,CF]>[F,C] | %11
 [F,F]>[F,F] [F,F]>[F,F] [F,F]2 [F,C]>[K:treble][A,_E] | %12
 [B,DB]>[B,D] [B,D]>[B,D][K:bass] [B,D]2 (3z[K:treble] cd[K:bass] | %13
 [F,F]>[F,F] [F,F]>[F,F] [F,CF]2 [F,CF]2 | [C,C]>[C,C] [C,C]>[C,C] [C,C]2 [C,C]>[C,C] | %15
 [F,CF]>[F,C] [F,C]>[F,C] [F,A,]2 [B,,B,]2 | [C,A,]>[C,A,] [C,C]>[C,C] [C,C]2 [C,B,]>[C,B,] | %17
[M:7/8] [F,A,]2 [F,B,]2 [F,A,]3 |] %18
V:3
 x8 | x8 | F,6 z2 | x8 | x8 | x6[K:treble] x2 | F,6 z2 | x6[K:bass] x2 |[M:3/4] x6 |[M:1/4] x2 | %10
[M:4/4] x8 | x15/2[K:treble] x/ | z4[K:bass] z2 z[K:treble] z/[K:bass] B,,/ | x8 | x8 | x8 | x8 | %17
[M:7/8] x7 |] %18
V:4
 x8 | x8 | x8 | x8 | x8 | x8 | x8 | x8 |[M:3/4] x6 |[M:1/4] x2 |[M:4/4] A>A A>A A>A (3Bcd | %11
 A>A A>A A2 A>c | z4 B2 z2 | A>A A>A A2 A2 | E2 z2 E2 E>G | z z/ F/ F>F [Fc]2 [Fd]2 | %16
 F>F F>F [EA]2 E>E |[M:7/8] z2 D2 C3 |] %18
V:5
 x8 | x8 | x8 | x8 | x8 | x8 | x8 | x8 |[M:3/4] x6 |[M:1/4] x2 |[M:4/4] x8 | x8 | %12
 z z/ B/ B>B z z/ d/ .[DFB]>[FB] | x8 | x8 | x8 | x8 |[M:7/8] x7 |] %18
V:6
 x8 | x8 | x8 | x8 | x8 | x6[K:treble] x2 | x8 | x6[K:bass] x2 |[M:3/4] x6 |[M:1/4] x2 | %10
[M:4/4] x8 | x15/2[K:treble] x/ | z4[K:bass] z2 B,,2[K:treble][K:bass] | x8 | x8 | x8 | x8 | %17
[M:7/8] x7 |] %18

